src/actions/22/format-border-set-diagonal-bl-tr.svg

<svg xmlns="http://www.w3.org/2000/svg" viewBox="0 0 22 22">
  <defs id="defs3051">
    <style type="text/css" id="current-color-scheme">
      .ColorScheme-Text {
        color:#363636;
      }
      </style>
  </defs>
 <path 
     style="fill:currentColor;fill-opacity:0.1;stroke:none" 
     d="M 3 2 L 3 3 L 3 10 L 3 11 L 3 18 L 3 19 L 11 19 L 12 19 L 20 19 L 20 18 L 20 2 L 12 2 L 11 2 L 3 2 z M 4 3 L 11 3 L 11 10 L 4 10 L 4 3 z M 12 3 L 19 3 L 19 10 L 12 10 L 12 3 z M 4 11 L 11 11 L 11 18 L 4 18 L 4 11 z M 12 11 L 19 11 L 19 18 L 12 18 L 12 11 z "
     class="ColorScheme-Text"
     />
 <path 
     style="fill:currentColor;fill-opacity:0.5;stroke:none" 
     d="M 4 3 L 4 10 L 11 10 L 11 3 L 4 3 z M 12 3 L 12 9.2929688 L 18.292969 3 L 12 3 z M 19 3.7070312 L 12.707031 10 L 19 10 L 19 3.7070312 z M 4 11 L 4 17.292969 L 10.292969 11 L 4 11 z M 12 11 L 12 18 L 19 18 L 19 11 L 12 11 z M 11 11.707031 L 4.7070312 18 L 11 18 L 11 11.707031 z "
     class="ColorScheme-Text"
     />
 <path 
     style="fill:currentColor;fill-opacity:1.0;stroke:none" 
     d="M 19.292969 2 L 3 18.292969 L 3 19 L 3.7070312 19 L 20 2.7070312 L 20 2 L 19.292969 2 z "
     class="ColorScheme-Text"
     />
</svg>

<svg xmlns="http://www.w3.org/2000/svg" viewBox="0 0 22 22">
    <defs id="defs3051">
        <style id="current-color-scheme" type="text/css">
            .ColorScheme-Text{color:#050505;opacity:.7}
        </style>
    </defs>
    <path d="M3 2v17h17V2H3zm1 1h7v7H4V3zm8 0h7v7h-7V3zm-8 8h7v7H4v-7zm8 0h7v7h-7v-7z" class="ColorScheme-Text" style="fill:currentColor;fill-opacity:.1;stroke:none"/>
    <path d="M4 3v7h7V3H4zm8 0v6.293L18.293 3H12zm7 .707L12.707 10H19V3.707zM4 11v6.293L10.293 11H4zm8 0v7h7v-7h-7zm-1 .707L4.707 18H11v-6.293z" class="ColorScheme-Text" style="fill:currentColor;fill-opacity:.5;stroke:none"/>
    <path d="M19.293 2 3 18.293V19h.707L20 2.707V2h-.707z" class="ColorScheme-Text" style="fill:currentColor;fill-opacity:1;stroke:none"/>
</svg>
